exports/diphtheria-tetanus-pertussis-dtp3-immunization-global_v1_850x600.svg

<svg xmlns="http://www.w3.org/2000/svg" version="1.1" style="background-color:#fff;-webkit-font-smoothing:antialiased" width="850" height="600" font-family="'Helvetica Neue',Helvetica,Arial,sans-serif" font-size="18" text-rendering="optimizeLegibility"><g class="ChartTab"><g class="HeaderView"><g opacity=".8" transform="matrix(.27 0 0 .27 778 15)"><a xmlns:xlink="http://www.w3.org/1999/xlink" xlink:href="https://ourworldindata.org" target="_blank"><g><path fill="#1B2543" d="M0 0h211.2v130.1H0z"/><path fill="#E63912" d="M0 112.2h211.2v17.9H0z"/><g><path fill="none" d="M1.2 12.3h210.2v99.2H1.2z"/><path fill="#FFF" d="M37.8 32.2c0 12.7-7.7 19.4-17.1 19.4-9.7 0-16.6-7.5-16.6-18.7 0-11.7 7.3-19.3 17.1-19.3 10.1.1 16.6 7.7 16.6 18.6zm-28.6.6c0 7.9 4.3 14.9 11.8 14.9 7.5 0 11.8-6.9 11.8-15.3 0-7.3-3.8-14.9-11.8-14.9-7.9 0-11.8 7.3-11.8 15.3zM62.7 43.8c0 2.7.1 5.1.2 7.2h-4.3l-.3-4.3h-.1c-1.3 2.1-4 4.9-8.8 4.9-4.2 0-9.1-2.3-9.1-11.6V24.6h4.8v14.6c0 5 1.5 8.4 5.9 8.4 3.2 0 5.5-2.2 6.3-4.4.3-.7.4-1.6.4-2.5V24.6h4.8v19.2zM67.3 32.8c0-3.1-.1-5.8-.2-8.2h4.2l.2 5.2h.2c1.2-3.5 4.1-5.8 7.3-5.8.5 0 .9.1 1.4.2v4.5c-.5-.1-1-.2-1.6-.2-3.4 0-5.8 2.6-6.5 6.2-.1.7-.2 1.4-.2 2.2V51h-4.8V32.8zM95.4 51L86 14.2h5l4.4 18.6c1.1 4.6 2.1 9.2 2.7 12.7h.1c.6-3.7 1.8-8 3-12.8l4.9-18.5h5l4.5 18.7c1 4.4 2 8.7 2.6 12.6h.1c.8-4 1.8-8.1 3-12.7l4.9-18.5h4.9L120.6 51h-5L111 31.9c-1.1-4.7-1.9-8.3-2.4-12h-.1c-.7 3.7-1.5 7.3-2.8 12L100.4 51h-5zM154.9 37.6c0 9.8-6.8 14-13.2 14-7.2 0-12.7-5.2-12.7-13.6 0-8.8 5.8-14 13.1-14 7.7 0 12.8 5.5 12.8 13.6zm-21 .3c0 5.8 3.3 10.1 8 10.1 4.6 0 8-4.3 8-10.3 0-4.5-2.2-10.1-7.9-10.1s-8.1 5.2-8.1 10.3zM158.2 32.8c0-3.1-.1-5.8-.2-8.2h4.2l.2 5.2h.2c1.2-3.5 4.1-5.8 7.3-5.8.5 0 .9.1 1.4.2v4.5c-.5-.1-1-.2-1.6-.2-3.4 0-5.8 2.6-6.5 6.2-.1.7-.2 1.4-.2 2.2V51h-4.8V32.8zM173.5 12.3h4.8V51h-4.8V12.3zM206.5 12.3v31.9c0 2.3.1 5 .2 6.8h-4.3l-.2-4.6h-.2c-1.5 2.9-4.7 5.2-9 5.2-6.4 0-11.3-5.4-11.3-13.4-.1-8.8 5.4-14.2 11.9-14.2 4 0 6.8 1.9 8 4h.1V12.3h4.8zm-4.8 23.1c0-.6-.1-1.4-.2-2a7 7 0 00-6.9-5.6c-5 0-7.9 4.4-7.9 10.2 0 5.3 2.6 9.8 7.8 9.8 3.2 0 6.2-2.1 7.1-5.7.2-.7.2-1.3.2-2.1v-4.6zM42.8 64c.1 1.6-1.1 2.9-3.1 2.9-1.7 0-2.9-1.3-2.9-2.9 0-1.7 1.3-3 3-3 1.9 0 3 1.3 3 3zm-5.4 33.8V71.4h4.8v26.4h-4.8zM47.5 78.6c0-2.7-.1-5-.2-7.1h4.3l.3 4.4h.1c1.3-2.5 4.4-5 8.8-5 3.7 0 9.4 2.2 9.4 11.2v15.8h-4.8V82.6c0-4.3-1.6-7.8-6.1-7.8-3.2 0-5.6 2.2-6.5 4.9-.2.6-.3 1.4-.3 2.2v15.9h-4.8V78.6zM84 61.6c2.9-.4 6.3-.8 10.1-.8 6.8 0 11.7 1.6 14.9 4.6 3.3 3 5.2 7.3 5.2 13.2 0 6-1.9 10.9-5.3 14.3-3.4 3.4-9.1 5.3-16.3 5.3-3.4 0-6.2-.2-8.6-.4V61.6zm4.8 32.5c1.2.2 3 .3 4.8.3 10.2 0 15.7-5.7 15.7-15.6.1-8.7-4.9-14.2-14.9-14.2-2.5 0-4.3.2-5.6.5v29zM132.1 97.8l-.4-3.3h-.2a9.79 9.79 0 01-8.1 3.9c-5.4 0-8.1-3.8-8.1-7.6 0-6.4 5.7-9.9 15.9-9.8v-.5c0-2.2-.6-6.1-6-6.1-2.5 0-5 .8-6.9 2l-1.1-3.2c2.2-1.4 5.4-2.3 8.7-2.3 8.1 0 10.1 5.5 10.1 10.8v9.9c0 2.3.1 4.5.4 6.3h-4.3zm-.7-13.4c-5.3-.1-11.2.8-11.2 5.9 0 3.1 2.1 4.6 4.5 4.6 3.4 0 5.6-2.2 6.4-4.4.2-.5.3-1 .3-1.5v-4.6zM146.6 63.9v7.6h6.9v3.7h-6.9v14.2c0 3.3.9 5.1 3.6 5.1 1.3 0 2.2-.2 2.8-.3l.2 3.6c-.9.4-2.4.7-4.3.7-2.2 0-4-.7-5.2-2-1.4-1.4-1.9-3.8-1.9-6.9V75.1h-4.1v-3.7h4.1v-6.3l4.8-1.2zM171.4 97.8l-.4-3.3h-.2a9.79 9.79 0 01-8.1 3.9c-5.4 0-8.1-3.8-8.1-7.6 0-6.4 5.7-9.9 15.9-9.8v-.5c0-2.2-.6-6.1-6-6.1-2.5 0-5 .8-6.9 2l-1.1-3.2c2.2-1.4 5.4-2.3 8.7-2.3 8.1 0 10.1 5.5 10.1 10.8v9.9c0 2.3.1 4.5.4 6.3h-4.3zm-.7-13.4c-5.3-.1-11.2.8-11.2 5.9 0 3.1 2.1 4.6 4.5 4.6 3.4 0 5.6-2.2 6.4-4.4.2-.5.3-1 .3-1.5v-4.6z"/></g></g></a></g><a href="https://ourworldindata.org/grapher/diphtheria-tetanus-pertussis-dtp3-immunization-global" target="_blank"><text font-size="21.6" x="15" y="32.3" fill="#555"><tspan x="15" y="32.28">Global vaccination coverage: Diphtheria-tetanus-pertussis (DTP3)</tspan><tspan x="15" y="53.88">immunization</tspan></text></a></g><g class="StackedArea"><defs><clipPath id="a"><path d="M75.08 0h820v952.8h-820z"/></clipPath></defs><g class="AxisBoxView"><g class="HorizontalAxis" fill="#666" text-anchor="middle" font-size="16.2"><text x="75.1" y="556.5">1980</text><text x="165.8" y="556.5">1985</text><text x="256.6" y="556.5">1990</text><text x="347.3" y="556.5">1995</text><text x="438.1" y="556.5">2000</text><text x="528.9" y="556.5">2005</text><text x="619.6" y="556.5">2010</text><text x="710.4" y="556.5">2015</text></g><g class="VerticalAxis" fill="#666" dominant-baseline="middle" text-anchor="end" font-size="16.2"><text x="70.08" y="535.3">0</text><text x="70.08" y="473.4">1 billion</text><text x="70.08" y="411.4">2 billion</text><text x="70.08" y="349.5">3 billion</text><text x="70.08" y="287.6">4 billion</text><text x="70.08" y="225.6">5 billion</text><text x="70.08" y="163.7">6 billion</text><text x="70.08" y="101.7">7 billion</text></g><g class="AxisGridLines"><path stroke="#ccc" d="M75.08 535.3h635.28"/><path stroke="#ddd" stroke-dasharray="3,2" d="M75.08 473.4h635.28M75.08 411.4h635.28M75.08 349.5h635.28M75.08 287.6h635.28M75.08 225.6h635.28M75.08 163.7h635.28M75.08 101.7h635.28"/></g></g><g clip-path="url(#a)"><g class="HeightedLegend clickable"><g class="legendMark"><text font-size="13.5" x="715.4" y="116" fill="#34983f"><tspan x="715.36" y="116.05">Not vaccinated</tspan></text></g><g class="legendMark"><text font-size="13.5" x="715.4" y="343.7" fill="#3360a9"><tspan x="715.36" y="343.65">Vaccinated</tspan></text></g></g><g class="Areas"><path d="M75.1 477.6l18.1-9.5 18.2-6.9 18.1-39 18.2-19.7 18.1-14.5 18.2-11.9 18.1-15.4 18.2-28.6 18.1-16.6 18.2-30.1 18.1 9.2 18.2 2.9 18.1-3.7 18.2-14.1 18.1-3.7h18.2l18.1.1 18.2-7.1 18.1-3.5 18.2-3.4 18.1-7.3 18.2-3.5 18.1-11.5 18.2-7.6 18.2-11.9 18.1-7.9 18.2-8.2 18.1-12.4 18.2-12.7 18.1-8.6 18.2-4.4 18.1-4.5 18.2-4.4 18.1-4.4 18.2-9-.04 391.5H75.08" fill="#3360a9" fill-opacity=".7" class="World_1-area"/><path d="M75.1 260.3l18.1-4.9 18.2-4.9 18.1-5.1 18.2-5.3 18.1-5.3 18.2-5.6 18.1-5.7 18.2-5.7 18.1-5.7 18.2-5.7 18.1-5.5 18.2-5.3 18.1-5.3 18.2-5.1 18.1-5.1 18.2-5 18.1-4.9 18.2-4.8 18.1-4.8 18.2-4.8 18.1-4.8 18.2-4.8 18.1-4.9 18.2-4.9 18.2-4.9 18.1-5 18.2-5 18.1-5.1 18.2-5.1 18.1-5.2 18.2-5.2 18.1-5.2 18.2-5.2 18.1-5.2 18.2-5.2v63.7l-18.2 9-18.1 4.4-18.2 4.4-18.1 4.5-18.2 4.4-18.1 8.6-18.2 12.7-18.1 12.4-18.2 8.2-18.1 7.9-18.2 11.9-18.2 7.6-18.1 11.5-18.2 3.5-18.1 7.3-18.2 3.4-18.1 3.5-18.2 7.1-18.1-.1h-18.2l-18.1 3.7-18.2 14.1-18.1 3.7-18.2-2.9-18.1-9.2-18.2 30.1-18.1 16.6-18.2 28.6-18.1 15.4-18.2 11.9-18.1 14.5-18.2 19.7-18.1 39-18.2 6.9-18.1 9.5" fill="#34983f" fill-opacity=".7" class="World_0-area"/><path stroke-linecap="round" d="M75.1 477.6l18.1-9.5 18.2-6.9 18.1-39 18.2-19.7 18.1-14.5 18.2-11.9 18.1-15.4 18.2-28.6 18.1-16.6 18.2-30.1 18.1 9.2 18.2 2.9 18.1-3.7 18.2-14.1 18.1-3.7h18.2l18.1.1 18.2-7.1 18.1-3.5 18.2-3.4 18.1-7.3 18.2-3.5 18.1-11.5 18.2-7.6 18.2-11.9 18.1-7.9 18.2-8.2 18.1-12.4 18.2-12.7 18.1-8.6 18.2-4.4 18.1-4.5 18.2-4.4 18.1-4.4 18.2-9" stroke="#2B508D" stroke-opacity=".7" stroke-width=".5" fill="none" class="World_1-border"/><path stroke-linecap="round" d="M75.1 260.3l18.1-4.9 18.2-4.9 18.1-5.1 18.2-5.3 18.1-5.3 18.2-5.6 18.1-5.7 18.2-5.7 18.1-5.7 18.2-5.7 18.1-5.5 18.2-5.3 18.1-5.3 18.2-5.1 18.1-5.1 18.2-5 18.1-4.9 18.2-4.8 18.1-4.8 18.2-4.8 18.1-4.8 18.2-4.8 18.1-4.9 18.2-4.9 18.2-4.9 18.1-5 18.2-5 18.1-5.1 18.2-5.1 18.1-5.2 18.2-5.2 18.1-5.2 18.2-5.2 18.1-5.2 18.2-5.2" stroke="#2C7F35" stroke-opacity=".7" stroke-width=".5" fill="none" class="World_0-border"/></g></g></g><g class="SourcesFooter" fill="#777"><g class="clickable" fill="#777"><text font-size="12.6" x="15" y="581.6"><tspan x="15" y="581.58">Source: DTP3 Coverage global - OWID based on WHO (2016)</tspan></text></g><text font-size="12.6" x="578.7" y="581.6"><tspan x="578.72" y="581.58"><a target="_blank" href="https://ourworldindata.org/vaccination/" fill="#777">OurWorldInData.org/vaccination/</a> • <a class="cclogo" href="http://creativecommons.org/licenses/by-sa/4.0/deed.en_US" target="_blank" fill="#777">CC BY-SA</a></tspan></text></g></g></svg>

<svg xmlns="http://www.w3.org/2000/svg" version="1.1" style="font-family: 'Helvetica Neue', Helvetica, Arial, sans-serif; font-size: 18px; background-color: white; text-rendering: optimizeLegibility; -webkit-font-smoothing: antialiased;" width="850" height="600"><g class="ChartTab"><g class="HeaderView"><g opacity="0.8" transform="translate(778, 15) scale(0.27)"><a xmlns:xlink="http://www.w3.org/1999/xlink" xlink:href="https://ourworldindata.org" target="_blank"><g><rect x="0" y="0" fill="#1B2543" width="211.2" height="130.1"/><rect x="0" y="112.2" fill="#E63912" width="211.2" height="17.9"/><g><rect x="1.2" y="12.3" fill="none" width="210.2" height="99.2"/><path fill="#FFFFFF" d="M37.8,32.2c0,12.7-7.7,19.4-17.1,19.4c-9.7,0-16.6-7.5-16.6-18.7c0-11.7,7.3-19.3,17.1-19.3 C31.3,13.7,37.8,21.3,37.8,32.2z M9.2,32.8c0,7.9,4.3,14.9,11.8,14.9c7.5,0,11.8-6.9,11.8-15.3c0-7.3-3.8-14.9-11.8-14.9 C13.1,17.5,9.2,24.8,9.2,32.8z"/><path fill="#FFFFFF" d="M62.7,43.8c0,2.7,0.1,5.1,0.2,7.2h-4.3l-0.3-4.3h-0.1c-1.3,2.1-4,4.9-8.8,4.9c-4.2,0-9.1-2.3-9.1-11.6 V24.6h4.8v14.6c0,5,1.5,8.4,5.9,8.4c3.2,0,5.5-2.2,6.3-4.4c0.3-0.7,0.4-1.6,0.4-2.5V24.6h4.8V43.8z"/><path fill="#FFFFFF" d="M67.3,32.8c0-3.1-0.1-5.8-0.2-8.2h4.2l0.2,5.2h0.2c1.2-3.5,4.1-5.8,7.3-5.8c0.5,0,0.9,0.1,1.4,0.2v4.5 c-0.5-0.1-1-0.2-1.6-0.2c-3.4,0-5.8,2.6-6.5,6.2c-0.1,0.7-0.2,1.4-0.2,2.2V51h-4.8V32.8z"/><path fill="#FFFFFF" d="M95.4,51l-9.4-36.8h5l4.4,18.6c1.1,4.6,2.1,9.2,2.7,12.7h0.1c0.6-3.7,1.8-8,3-12.8l4.9-18.5h5l4.5,18.7 c1,4.4,2,8.7,2.6,12.6h0.1c0.8-4,1.8-8.1,3-12.7l4.9-18.5h4.9L120.6,51h-5L111,31.9c-1.1-4.7-1.9-8.3-2.4-12h-0.1 c-0.7,3.7-1.5,7.3-2.8,12L100.4,51H95.4z"/><path fill="#FFFFFF" d="M154.9,37.6c0,9.8-6.8,14-13.2,14c-7.2,0-12.7-5.2-12.7-13.6c0-8.8,5.8-14,13.1-14 C149.8,24,154.9,29.5,154.9,37.6z M133.9,37.9c0,5.8,3.3,10.1,8,10.1c4.6,0,8-4.3,8-10.3c0-4.5-2.2-10.1-7.9-10.1 C136.3,27.6,133.9,32.8,133.9,37.9z"/><path fill="#FFFFFF" d="M158.2,32.8c0-3.1-0.1-5.8-0.2-8.2h4.2l0.2,5.2h0.2c1.2-3.5,4.1-5.8,7.3-5.8c0.5,0,0.9,0.1,1.4,0.2v4.5 c-0.5-0.1-1-0.2-1.6-0.2c-3.4,0-5.8,2.6-6.5,6.2c-0.1,0.7-0.2,1.4-0.2,2.2V51h-4.8V32.8z"/><path fill="#FFFFFF" d="M173.5,12.3h4.8V51h-4.8V12.3z"/><path fill="#FFFFFF" d="M206.5,12.3v31.9c0,2.3,0.1,5,0.2,6.8h-4.3l-0.2-4.6H202c-1.5,2.9-4.7,5.2-9,5.2 c-6.4,0-11.3-5.4-11.3-13.4c-0.1-8.8,5.4-14.2,11.9-14.2c4,0,6.8,1.9,8,4h0.1V12.3H206.5z M201.7,35.4c0-0.6-0.1-1.4-0.2-2 c-0.7-3.1-3.3-5.6-6.9-5.6c-5,0-7.9,4.4-7.9,10.2c0,5.3,2.6,9.8,7.8,9.8c3.2,0,6.2-2.1,7.1-5.7c0.2-0.7,0.2-1.3,0.2-2.1V35.4z"/><path fill="#FFFFFF" d="M42.8,64c0.1,1.6-1.1,2.9-3.1,2.9c-1.7,0-2.9-1.3-2.9-2.9c0-1.7,1.3-3,3-3C41.7,61,42.8,62.3,42.8,64z M37.4,97.8V71.4h4.8v26.4H37.4z"/><path fill="#FFFFFF" d="M47.5,78.6c0-2.7-0.1-5-0.2-7.1h4.3l0.3,4.4h0.1c1.3-2.5,4.4-5,8.8-5c3.7,0,9.4,2.2,9.4,11.2v15.8h-4.8 V82.6c0-4.3-1.6-7.8-6.1-7.8c-3.2,0-5.6,2.2-6.5,4.9c-0.2,0.6-0.3,1.4-0.3,2.2v15.9h-4.8V78.6z"/><path fill="#FFFFFF" d="M84,61.6c2.9-0.4,6.3-0.8,10.1-0.8c6.8,0,11.7,1.6,14.9,4.6c3.3,3,5.2,7.3,5.2,13.2c0,6-1.9,10.9-5.3,14.3 c-3.4,3.4-9.1,5.3-16.3,5.3c-3.4,0-6.2-0.2-8.6-0.4V61.6z M88.8,94.1c1.2,0.2,3,0.3,4.8,0.3c10.2,0,15.7-5.7,15.7-15.6 c0.1-8.7-4.9-14.2-14.9-14.2c-2.5,0-4.3,0.2-5.6,0.5V94.1z"/><path fill="#FFFFFF" d="M132.1,97.8l-0.4-3.3h-0.2c-1.5,2.1-4.3,3.9-8.1,3.9c-5.4,0-8.1-3.8-8.1-7.6c0-6.4,5.7-9.9,15.9-9.8v-0.5 c0-2.2-0.6-6.1-6-6.1c-2.5,0-5,0.8-6.9,2l-1.1-3.2c2.2-1.4,5.4-2.3,8.7-2.3c8.1,0,10.1,5.5,10.1,10.8v9.9c0,2.3,0.1,4.5,0.4,6.3 H132.1z M131.4,84.4c-5.3-0.1-11.2,0.8-11.2,5.9c0,3.1,2.1,4.6,4.5,4.6c3.4,0,5.6-2.2,6.4-4.4c0.2-0.5,0.3-1,0.3-1.5V84.4z"/><path fill="#FFFFFF" d="M146.6,63.9v7.6h6.9v3.7h-6.9v14.2c0,3.3,0.9,5.1,3.6,5.1c1.3,0,2.2-0.2,2.8-0.3l0.2,3.6 c-0.9,0.4-2.4,0.7-4.3,0.7c-2.2,0-4-0.7-5.2-2c-1.4-1.4-1.9-3.8-1.9-6.9V75.1h-4.1v-3.7h4.1v-6.3L146.6,63.9z"/><path fill="#FFFFFF" d="M171.4,97.8l-0.4-3.3h-0.2c-1.5,2.1-4.3,3.9-8.1,3.9c-5.4,0-8.1-3.8-8.1-7.6c0-6.4,5.7-9.9,15.9-9.8v-0.5 c0-2.2-0.6-6.1-6-6.1c-2.5,0-5,0.8-6.9,2l-1.1-3.2c2.2-1.4,5.4-2.3,8.7-2.3c8.1,0,10.1,5.5,10.1,10.8v9.9c0,2.3,0.1,4.5,0.4,6.3 H171.4z M170.7,84.4c-5.3-0.1-11.2,0.8-11.2,5.9c0,3.1,2.1,4.6,4.5,4.6c3.4,0,5.6-2.2,6.4-4.4c0.2-0.5,0.3-1,0.3-1.5V84.4z"/></g></g></a></g><a href="https://ourworldindata.org/grapher/diphtheria-tetanus-pertussis-dtp3-immunization-global" target="_blank"><text font-size="21.60" x="15.0" y="32.3" fill="#555"><tspan x="15" y="32.279999999999994">Global vaccination coverage: Diphtheria-tetanus-pertussis (DTP3)</tspan><tspan x="15" y="53.87999999999999">immunization</tspan></text></a></g><g class="StackedArea"><defs><clipPath id="boundsClip-1"><rect x="75.08" y="0" width="820" height="952.8"></rect></clipPath></defs><g class="AxisBoxView"><g class="HorizontalAxis"><text x="75.1" y="556.5" fill="#666" text-anchor="middle" font-size="16.2">1980</text><text x="165.8" y="556.5" fill="#666" text-anchor="middle" font-size="16.2">1985</text><text x="256.6" y="556.5" fill="#666" text-anchor="middle" font-size="16.2">1990</text><text x="347.3" y="556.5" fill="#666" text-anchor="middle" font-size="16.2">1995</text><text x="438.1" y="556.5" fill="#666" text-anchor="middle" font-size="16.2">2000</text><text x="528.9" y="556.5" fill="#666" text-anchor="middle" font-size="16.2">2005</text><text x="619.6" y="556.5" fill="#666" text-anchor="middle" font-size="16.2">2010</text><text x="710.4" y="556.5" fill="#666" text-anchor="middle" font-size="16.2">2015</text></g><g class="VerticalAxis"><text x="70.08" y="535.3" fill="#666" dominant-baseline="middle" text-anchor="end" font-size="16.2">0</text><text x="70.08" y="473.4" fill="#666" dominant-baseline="middle" text-anchor="end" font-size="16.2">1 billion</text><text x="70.08" y="411.4" fill="#666" dominant-baseline="middle" text-anchor="end" font-size="16.2">2 billion</text><text x="70.08" y="349.5" fill="#666" dominant-baseline="middle" text-anchor="end" font-size="16.2">3 billion</text><text x="70.08" y="287.6" fill="#666" dominant-baseline="middle" text-anchor="end" font-size="16.2">4 billion</text><text x="70.08" y="225.6" fill="#666" dominant-baseline="middle" text-anchor="end" font-size="16.2">5 billion</text><text x="70.08" y="163.7" fill="#666" dominant-baseline="middle" text-anchor="end" font-size="16.2">6 billion</text><text x="70.08" y="101.7" fill="#666" dominant-baseline="middle" text-anchor="end" font-size="16.2">7 billion</text></g><g class="AxisGridLines"><line x1="75.08" y1="535.3" x2="710.36" y2="535.3" stroke="#ccc"></line><line x1="75.08" y1="473.4" x2="710.36" y2="473.4" stroke="#ddd" stroke-dasharray="3,2"></line><line x1="75.08" y1="411.4" x2="710.36" y2="411.4" stroke="#ddd" stroke-dasharray="3,2"></line><line x1="75.08" y1="349.5" x2="710.36" y2="349.5" stroke="#ddd" stroke-dasharray="3,2"></line><line x1="75.08" y1="287.6" x2="710.36" y2="287.6" stroke="#ddd" stroke-dasharray="3,2"></line><line x1="75.08" y1="225.6" x2="710.36" y2="225.6" stroke="#ddd" stroke-dasharray="3,2"></line><line x1="75.08" y1="163.7" x2="710.36" y2="163.7" stroke="#ddd" stroke-dasharray="3,2"></line><line x1="75.08" y1="101.7" x2="710.36" y2="101.7" stroke="#ddd" stroke-dasharray="3,2"></line></g></g><g clip-path="url(#boundsClip-1)"><g class="HeightedLegend clickable"><g class="legendMark"><rect x="710.36" y="105.25" width="124.64" height="13.5" fill="#fff" opacity="0"></rect><text font-size="13.50" x="715.4" y="116.0" fill="#34983f"><tspan x="715.36" y="116.05">Not vaccinated</tspan></text></g><g class="legendMark"><rect x="710.36" y="332.85" width="102.095" height="13.5" fill="#fff" opacity="0"></rect><text font-size="13.50" x="715.4" y="343.7" fill="#3360a9"><tspan x="715.36" y="343.65000000000003">Vaccinated</tspan></text></g></g><g class="Areas"><rect x="75.08" y="80.1" width="635.28" height="455.19999999999993" opacity="0" fill="rgba(255,255,255,0)"></rect><path stroke-linecap="round" d="M75.1 477.6L93.2 468.1L111.4 461.2L129.5 422.2L147.7 402.5L165.8 388L184 376.1L202.1 360.7L220.3 332.1L238.4 315.5L256.6 285.4L274.7 294.6L292.9 297.5L311 293.8L329.2 279.7L347.3 276L365.5 276L383.6 276.1L401.8 269L419.9 265.5L438.1 262.1L456.2 254.8L474.4 251.3L492.5 239.8L510.7 232.2L528.9 220.3L547 212.4L565.2 204.2L583.3 191.8L601.5 179.1L619.6 170.5L637.8 166.1L655.9 161.6L674.1 157.2L692.2 152.8L710.4 143.8L710.36 535.3L75.08 535.3" fill="#3360a9" fill-opacity="0.7" class="World_1-area"></path><path stroke-linecap="round" d="M75.1 260.3L93.2 255.4L111.4 250.5L129.5 245.4L147.7 240.1L165.8 234.8L184 229.2L202.1 223.5L220.3 217.8L238.4 212.1L256.6 206.4L274.7 200.9L292.9 195.6L311 190.3L329.2 185.2L347.3 180.1L365.5 175.1L383.6 170.2L401.8 165.4L419.9 160.6L438.1 155.8L456.2 151L474.4 146.2L492.5 141.3L510.7 136.4L528.9 131.5L547 126.5L565.2 121.5L583.3 116.4L601.5 111.3L619.6 106.1L637.8 100.9L655.9 95.7L674.1 90.5L692.2 85.3L710.4 80.1L710.4 143.8L692.2 152.8L674.1 157.2L655.9 161.6L637.8 166.1L619.6 170.5L601.5 179.1L583.3 191.8L565.2 204.2L547 212.4L528.9 220.3L510.7 232.2L492.5 239.8L474.4 251.3L456.2 254.8L438.1 262.1L419.9 265.5L401.8 269L383.6 276.1L365.5 276L347.3 276L329.2 279.7L311 293.8L292.9 297.5L274.7 294.6L256.6 285.4L238.4 315.5L220.3 332.1L202.1 360.7L184 376.1L165.8 388L147.7 402.5L129.5 422.2L111.4 461.2L93.2 468.1L75.1 477.6" fill="#34983f" fill-opacity="0.7" class="World_0-area"></path><path stroke-linecap="round" d="M75.1 477.6L93.2 468.1L111.4 461.2L129.5 422.2L147.7 402.5L165.8 388L184 376.1L202.1 360.7L220.3 332.1L238.4 315.5L256.6 285.4L274.7 294.6L292.9 297.5L311 293.8L329.2 279.7L347.3 276L365.5 276L383.6 276.1L401.8 269L419.9 265.5L438.1 262.1L456.2 254.8L474.4 251.3L492.5 239.8L510.7 232.2L528.9 220.3L547 212.4L565.2 204.2L583.3 191.8L601.5 179.1L619.6 170.5L637.8 166.1L655.9 161.6L674.1 157.2L692.2 152.8L710.4 143.8" stroke="rgb(43, 80, 141)" stroke-opacity="0.7" stroke-width="0.5" fill="none" class="World_1-border"></path><path stroke-linecap="round" d="M75.1 260.3L93.2 255.4L111.4 250.5L129.5 245.4L147.7 240.1L165.8 234.8L184 229.2L202.1 223.5L220.3 217.8L238.4 212.1L256.6 206.4L274.7 200.9L292.9 195.6L311 190.3L329.2 185.2L347.3 180.1L365.5 175.1L383.6 170.2L401.8 165.4L419.9 160.6L438.1 155.8L456.2 151L474.4 146.2L492.5 141.3L510.7 136.4L528.9 131.5L547 126.5L565.2 121.5L583.3 116.4L601.5 111.3L619.6 106.1L637.8 100.9L655.9 95.7L674.1 90.5L692.2 85.3L710.4 80.1" stroke="rgb(44, 127, 53)" stroke-opacity="0.7" stroke-width="0.5" fill="none" class="World_0-border"></path></g></g></g><g style="fill: #777;" class="SourcesFooter"><g style="fill: #777;" class="clickable"><text font-size="12.60" x="15.0" y="581.6"><tspan x="15" y="581.58">Source: DTP3 Coverage global - OWID based on WHO (2016)</tspan></text></g><text font-size="12.60" x="578.7" y="581.6"><tspan x="578.716" y="581.58"><a target='_blank' style='fill: #777;' href='https://ourworldindata.org/vaccination/'>OurWorldInData.org/vaccination/</a> • <a style="fill: #777;" class="cclogo" href="http://creativecommons.org/licenses/by-sa/4.0/deed.en_US" target="_blank">CC BY-SA</a></tspan></text></g></g></svg>
